X: 32270
T: Picnic, The
R: reel
M: 4/4
K: Amajor
|:A,2A,C EA,CE|AEEA c2BA|FAEA ceaf|ecBA FAEC|
A,2A,C EA,CE|AEEA c2BA|FAEA cefe|ceBe A2z2:|
|:A2Ac BAFA|agaf ecBA|dfce BeAc|dBcA BAFA|
EA,CE AEEA|dBcA BAFA|EAcf ecBA|EAGB A4:|

